src/svg/check-square.svg

<svg height="1000" width="875.0" xmlns="http://www.w3.org/2000/svg">
    <path d="m781.3 937.5h-687.5c-51.8 0-93.8-42-93.8-93.7v-687.5c0-51.8 42-93.8 93.8-93.8h687.5c51.7 0 93.7 42 93.7 93.8v687.5c0 51.7-42 93.7-93.7 93.7z m-399.8-191.5l359.3-359.4c12.2-12.2 12.2-32 0-44.2l-44.1-44.2c-12.2-12.2-32-12.2-44.2 0l-293.1 293.1-136.9-136.8c-12.2-12.2-32-12.2-44.2 0l-44.2 44.2c-12.2 12.2-12.2 31.9 0 44.2l203.2 203.1c12.2 12.2 32 12.2 44.2 0z" />
  </svg>

<svg height="1000" width="875" xmlns="http://www.w3.org/2000/svg"><path d="M781.3 937.5H93.8C42 937.5 0 895.5 0 843.8V156.3C0 104.5 42 62.5 93.8 62.5h687.5c51.7 0 93.7 42 93.7 93.8v687.5c0 51.7 -42 93.7 -93.7 93.7zM381.5 746L740.8 386.6c12.3 -12.2 12.3 -32 0 -44.2l-44.1 -44.2c-12.2 -12.2 -32 -12.2 -44.2 0L359.4 591.3 222.5 454.5c-12.2 -12.2 -31.9 -12.2 -44.2 0l-44.1 44.2c-12.3 12.2 -12.3 31.9 0 44.2L337.3 746c12.2 12.2 32 12.2 44.2 0z"/></svg>
